src/icons/IconMMP/IconMMP_size_m.svg

<svg width="24" height="24" viewBox="0 0 24 24" fill="none" xmlns="http://www.w3.org/2000/svg">
  <path
    fill-rule="evenodd"
    clip-rule="evenodd"
    d="M16 1H8V3H9.5L7.41667 13H4V15H20V13H16.5833L14.5 3H16V1ZM14.5404 13H9.45961L11.1263 5H12.8737L14.5404 13Z"
    fill="black"
  />
  <path
    d="M23 18L20.0471 19.2299C19.3151 19.4495 18.5269 19.3815 17.8434 19.0397L16.5348 18.3854C16.229 18.2325 15.8662 18.2464 15.5731 18.4224L14.8914 18.8314C14.0654 19.327 13.0516 19.3958 12.1661 19.0163L10.4587 18.2845C10.1883 18.1687 9.88064 18.1777 9.61754 18.3093L8.22728 19.0044C7.48114 19.3775 6.61336 19.423 5.83227 19.1301L3.46548 18.2426C3.20512 18.1449 2.91586 18.1601 2.66715 18.2845L1 19.0044V17.0044L1.77272 16.4956C2.51886 16.1225 3.38664 16.077 4.16773 16.3699L6.53451 17.2574C6.79488 17.3551 7.08414 17.3399 7.33285 17.2155L8.72312 16.5204C9.5124 16.1258 10.4354 16.0986 11.2465 16.4463L12.954 17.178C13.2491 17.3045 13.587 17.2816 13.8624 17.1164L14.5441 16.7074C15.4236 16.1797 16.5118 16.1379 17.4292 16.5966L18.7378 17.2509C18.9656 17.3648 19.2284 17.3875 19.4724 17.3143L23 16V18Z"
    fill="black"
  />
  <path d="M2 21H22V23H2V21Z" fill="black" />
</svg>

<svg viewBox="0 0 24 24" xmlns="http://www.w3.org/2000/svg">
  <path
    fill-rule="evenodd"
    clip-rule="evenodd"
    d="M16 1H8v2h1.5L7.417 13H4v2h16v-2h-3.417L14.5 3H16V1zm-1.46 12H9.46l1.666-8h1.748l1.666 8z"
  />
  <path
    d="M23 18l-2.953 1.23a3 3 0 01-2.204-.19l-1.308-.655a1 1 0 00-.962.037l-.682.41a3 3 0 01-2.725.184l-1.707-.731a1 1 0 00-.841.024l-1.39.695a3 3 0 01-2.396.126l-2.367-.887a1 1 0 00-.798.042L1 19.005v-2l.773-.51a3 3 0 012.395-.125l2.367.887a1 1 0 00.798-.042l1.39-.695a3 3 0 012.523-.074l1.708.732a1 1 0 00.908-.062l.682-.409a3 3 0 012.885-.11l1.309.654a1 1 0 00.734.063L23 16v2zM2 21h20v2H2v-2z"
  />
</svg>
